icons/ArrowCornerLeftDown.svg

<svg width="24" height="24" viewBox="0 0 24 24" fill="none" xmlns="http://www.w3.org/2000/svg">
<path fill-rule="evenodd" clip-rule="evenodd" d="M8.53036,19.5304c-0.29289,0.2929 -0.76777,0.2929 -1.06066,0l-4,-4c-0.29289,-0.2929 -0.29289,-0.7678 0,-1.0607c0.29289,-0.2929 0.76777,-0.2929 1.06066,0l2.71967,2.7197v-9.68933c0,-1.51878 1.23122,-2.75 2.74997,-2.75h11c0.4142,0 0.75,0.33579 0.75,0.75c0,0.41421 -0.3358,0.75 -0.75,0.75h-11c-0.69033,0 -1.24997,0.55964 -1.24997,1.25v9.68933l2.71967,-2.7197c0.2929,-0.2929 0.7678,-0.2929 1.0607,0c0.2929,0.2929 0.2929,0.7678 0,1.0607z" fill="#002B51"/>
</svg>

<svg width="24" height="24" viewBox="0 0 24 24" fill="none" xmlns="http://www.w3.org/2000/svg">
<path fill-rule="evenodd" clip-rule="evenodd" d="M8.53036 19.5304C8.23747 19.8233 7.76259 19.8233 7.4697 19.5304L3.4697 15.5304C3.17681 15.2375 3.17681 14.7626 3.4697 14.4697C3.76259 14.1768 4.23747 14.1768 4.53036 14.4697L7.25003 17.1894L7.25003 7.50007C7.25003 5.98129 8.48125 4.75007 10 4.75007L21 4.75007C21.4142 4.75007 21.75 5.08586 21.75 5.50007C21.75 5.91428 21.4142 6.25007 21 6.25007L10 6.25007C9.30967 6.25007 8.75003 6.80971 8.75003 7.50007L8.75003 17.1894L11.4697 14.4697C11.7626 14.1768 12.2375 14.1768 12.5304 14.4697C12.8233 14.7626 12.8233 15.2375 12.5304 15.5304L8.53036 19.5304Z" fill="#002B51"/>
</svg>
